; HEADER_BLOCK_START
; generated by OrcaSlicer 2.3.0 on 2025-11-20 at 02:46:57
; total layer number: 10
;_GP_TOTAL_LAYER_NUMBER_PLACEHOLDER
; filament_density: 1.27
; filament_diameter: 1.75
; max_z_height: 2.00
; HEADER_BLOCK_END

; THUMBNAIL_BLOCK_START

;
; THUMBNAIL_BLOCK_END







; external perimeters extrusion width = 0.40mm
; perimeters extrusion width = 0.45mm
; infill extrusion width = 0.45mm
; solid infill extrusion width = 0.45mm
; top infill extrusion width = 0.38mm
; first layer extrusion width = 0.42mm

; EXECUTABLE_BLOCK_START
EXCLUDE_OBJECT_DEFINE NAME=cat2.stl_id_0_copy_0 CENTER=210,210 POLYGON=[[148.39,215.111],[148.392,213.795],[148.397,212.579],[148.406,211.457],[148.421,210.419],[148.442,209.456],[148.471,208.562],[148.506,207.728],[148.551,206.944],[148.605,206.207],[148.669,205.503],[148.744,204.826],[152.204,174.136],[152.325,173.089],[152.47,172.102],[152.643,171.165],[152.846,170.268],[153.082,169.4],[153.353,168.55],[153.662,167.709],[154.012,166.864],[154.406,166.006],[154.845,165.124],[155.333,164.208],[155.872,163.245],[156.465,162.229],[157.114,161.145],[158.167,159.477],[159.254,157.887],[160.379,156.375],[161.54,154.939],[162.74,153.583],[163.978,152.3],[165.257,151.095],[166.576,149.964],[167.937,148.908],[169.34,147.926],[170.787,147.017],[172.278,146.181],[173.814,145.417],[175.396,144.725],[177.025,144.104],[222.114,128.466],[222.278,128.44],[249.683,130.068],[249.91,130.15],[250.124,130.328],[250.323,130.605],[250.51,130.979],[262.792,164.051],[263.172,165.079],[263.478,166.03],[263.712,166.91],[271.205,199.157],[271.309,199.611],[271.371,200.014],[271.391,200.361],[271.61,254.195],[269.936,259.077],[269.258,260.936],[268.516,262.75],[267.71,264.516],[266.842,266.233],[265.914,267.9],[264.925,269.517],[263.879,271.08],[262.775,272.589],[261.615,274.045],[260.401,275.441],[259.133,276.78],[257.812,278.06],[256.441,279.28],[255.02,280.438],[253.55,281.532],[252.033,282.56],[250.469,283.522],[248.861,284.418],[247.209,285.244],[245.514,286.002],[244.094,286.561],[242.551,287.102],[240.9,287.623],[239.154,288.121],[237.328,288.595],[235.435,289.041],[233.491,289.457],[231.508,289.843],[229.502,290.194],[227.486,290.511],[225.474,290.789],[223.481,291.03],[221.521,291.226],[219.607,291.38],[217.754,291.489],[215.976,291.55],[214.287,291.56],[212.701,291.517],[211.233,291.42],[209.896,291.269],[207.613,290.923],[205.408,290.554],[203.275,290.157],[201.212,289.733],[199.215,289.28],[197.28,288.795],[195.403,288.278],[193.58,287.727],[191.808,287.142],[190.083,286.52],[188.401,285.86],[186.759,285.162],[185.152,284.423],[183.578,283.64],[182.032,282.815],[180.51,281.946],[179.009,281.03],[177.525,280.065],[176.054,279.052],[174.593,277.989],[172.15,276.045],[169.816,273.95],[167.592,271.704],[165.479,269.315],[163.48,266.786],[161.596,264.121],[159.83,261.326],[158.183,258.405],[156.657,255.361],[155.253,252.2],[153.975,248.925],[152.823,245.543],[151.8,242.056],[150.907,238.469],[150.146,234.787],[149.519,231.016],[149.028,227.158],[148.675,223.217],[148.462,219.2],[148.39,215.111]]
M106 S0
M106 P2 S0
;TYPE:Custom
;N4 MAX
PRINT_START BED_TEMP=70 EXTRUDER_TEMP=240 TOTAL_LAYER=10 TOTAL_LAYER=10 AREA_START=147.013,127.066 AREA_END=272.987,292.937 BED_MESH=adaptive
G90
G21
M83 ; use relative distances for extrusion
; filament start gcode
M106 S0
M106 P2 S0
;LAYER_CHANGE
;Z:0.2
;HEIGHT:0.2
;BEFORE_LAYER_CHANGE
G92 E0
;0.2
SET_PRINT_STATS_INFO CURRENT_LAYER=1


G1 E-.7 F3600
;G1 F9000 X0 Y100
;M400
TIMELAPSE_TAKE_FRAME
;AFTER_LAYER_CHANGE
;0.2
;_SET_FAN_SPEED_CHANGING_LAYER
SET_VELOCITY_LIMIT ACCEL=1000
SET_VELOCITY_LIMIT SQUARE_CORNER_VELOCITY=7
G1 Z.6 F18000
G1 X159.455 Y155.627
G1 Z.6
G1 Z.2
G1 E.7 F2700
;TYPE:Skirt
;WIDTH:0.42
G1 F3000
G1 X161.885 Y152.757 E.11202
G1 X163.163 Y151.436 E.05474
G1 X165.802 Y149.061 E.10576
G1 X168.658 Y146.952 E.10576
G1 X171.749 Y145.116 E.10706
G1 X174.973 Y143.614 E.10595
G1 X176.636 Y142.981 E.053
G1 X221.928 Y127.293 E1.42774
G1 X222.348 Y127.254 E.01258
G1 X249.753 Y128.881 E.81774
G1 X250.314 Y129.032 E.01728
G1 X250.887 Y129.417 E.02056
G1 X251.287 Y129.909 E.01891
G1 X251.624 Y130.565 E.02195
G1 X264.303 Y164.715 E1.08507
G1 X264.87 Y166.641 E.05981
G1 X272.484 Y199.43 E1.00265
G1 X272.58 Y200.356 E.02771
G1 X272.799 Y254.19 E1.60354
G1 X272.734 Y254.58 E.01178
G1 X270.375 Y261.344 E.21338
G1 X268.771 Y265.051 E.12033
G1 X266.952 Y268.479 E.11556
G1 X265.939 Y270.137 E.05789
G1 X264.838 Y271.782 E.05896
G1 X262.544 Y274.785 E.11256
G1 X259.96 Y277.634 E.11456
G1 X257.231 Y280.168 E.11093
G1 X255.77 Y281.359 E.05613
G1 X252.656 Y283.573 E.11382
G1 X249.44 Y285.457 E.11102
G1 X247.741 Y286.308 E.0566
G1 X245.95 Y287.107 E.05841
G1 X242.909 Y288.236 E.09663
G1 X237.601 Y289.751 E.16443
G1 X233.74 Y290.619 E.11787
G1 X229.686 Y291.369 E.12279
G1 X225.616 Y291.97 E.12254
G1 X221.616 Y292.411 E.11986
G1 X217.795 Y292.676 E.11411
G1 X214.256 Y292.748 E.10544
G1 X211.155 Y292.606 E.09246
G1 X209.718 Y292.444 E.04305
G1 X205.191 Y291.722 E.13656
G1 X200.973 Y290.898 E.12803
G1 X195.059 Y289.416 E.18159
G1 X191.435 Y288.271 E.1132
G1 X189.649 Y287.627 E.05657
G1 X186.262 Y286.241 E.10899
G1 X183.049 Y284.705 E.10609
G1 X179.92 Y282.977 E.10646
G1 X176.878 Y281.062 E.10709
G1 X173.893 Y278.949 E.10891
G1 X171.41 Y276.976 E.09448
G1 X168.972 Y274.786 E.09762
G1 X166.702 Y272.492 E.09613
G1 X164.547 Y270.053 E.09696
G1 X162.509 Y267.473 E.09791
G1 X160.591 Y264.756 E.09905
G1 X158.795 Y261.91 E.10026
G1 X157.121 Y258.937 E.10163
G1 X155.571 Y255.843 E.10308
G1 X154.167 Y252.682 E.10303
G1 X152.85 Y249.309 E.10787
G1 X151.683 Y245.877 E.10797
G1 X150.647 Y242.343 E.10971
G1 X149.743 Y238.71 E.1115
G1 X148.974 Y234.982 E.11338
G1 X148.34 Y231.166 E.11525
G1 X147.844 Y227.264 E.11716
G1 X147.488 Y223.28 E.11912
G1 X147.274 Y219.221 E.12107
G1 X147.217 Y211.447 E.23158
G1 X147.319 Y207.678 E.11232
G1 X147.488 Y205.371 E.06888
G1 X151.144 Y172.952 E.97179
G1 X151.687 Y170.005 E.08925
G1 X152.546 Y167.299 E.08457
G1 X153.326 Y165.51 E.05814
G1 X154.284 Y163.649 E.06235
G1 X157.162 Y158.842 E.16687
G1 X159.432 Y155.66 E.11644
G1 E-.595 F3600
;WIPE_START
G1 F18000
G1 X160.077 Y154.896 E-.105
;WIPE_END
EXCLUDE_OBJECT_START NAME=cat2.stl_id_0_copy_0
G1 Z.6
G1 X215.297 Y165.188 Z.6
G1 Z.2
G1 E.7 F2700
;TYPE:Inner wall
G1 F3000
G1 X215.223 Y165.144 E.00249
G1 X214.714 Y165.016 E.01515
G1 X214.214 Y165.166 E.01509
G1 X213.68 Y165.482 E.01791
G1 X212.137 Y166.61 E.05522
G1 X210.5 Y167.897 E.06018
G1 X208.512 Y169.511 E.07397
G1 X205.45 Y172.062 E.11516
G1 X198.639 Y177.868 E.2586
G1 X194.55 Y181.307 E.15436
G1 X191.146 Y184.126 E.12769
G1 X187.68 Y186.912 E.12849
G1 X186.608 Y187.865 E.04144
G1 X185.748 Y188.726 E.03515
G1 X185.395 Y189.128 E.01546
G1 X185.107 Y189.507 E.01377
G1 X184.861 Y189.927 E.01405
G1 X184.709 Y190.487 E.01678
G1 X184.834 Y191.108 E.01829
G1 X185.139 Y191.57 E.01598
G1 X185.513 Y191.884 E.01411
G1 X185.914 Y192.106 E.01324
G1 X186.345 Y192.277 E.0134
G1 X186.833 Y192.421 E.0147
G1 X187.938 Y192.643 E.03258
G1 X188.955 Y192.779 E.02964
G1 X192.945 Y193.224 E.116
G1 X198.588 Y193.93 E.1643
G1 X200.247 Y194.115 E.04825
G1 X201.39 Y194.212 E.03314
G1 X202.396 Y194.272 E.02911
G1 X203.232 Y194.29 E.02417
G1 X203.703 Y194.276 E.0136
G1 X204.138 Y194.228 E.01264
G1 X204.609 Y194.081 E.01425
G1 X204.958 Y193.79 E.01314
G1 X205.377 Y193.351 E.01755
G1 X206.116 Y192.498 E.03258
G1 X207.551 Y190.731 E.06579
G1 X209.542 Y188.171 E.09371
G1 X210.684 Y186.809 E.05134
G1 X211.185 Y186.263 E.02141
G1 X211.639 Y185.806 E.0186
G1 X212.381 Y185.168 E.02828
G1 X212.735 Y184.958 E.01189
G1 X212.883 Y184.985 E.00434
G1 X213.197 Y185.085 E.00954
G1 X214.212 Y185.491 E.03157
G1 X215.49 Y186.086 E.04074
G1 X217.306 Y187.029 E.05911
G1 X218.952 Y187.973 E.05483
G1 X220.418 Y188.9 E.05012
G1 X221.216 Y189.479 E.02847
G1 X221.785 Y189.973 E.02178
G1 X222.065 Y190.298 E.0124
G1 X222.135 Y190.42 E.00407
G1 X222.116 Y190.558 E.00403
G1 X221.997 Y190.974 E.01248
G1 X221.782 Y191.575 E.01846
G1 X221.482 Y192.311 E.02296
G1 X221.111 Y193.153 E.02657
G1 X220.191 Y195.088 E.06191
G1 X219.109 Y197.209 E.0688
G1 X217.938 Y199.376 E.07117
G1 X216.76 Y201.446 E.06881
G1 X215.648 Y203.276 E.06188
G1 X215.148 Y204.047 E.02653
G1 X214.696 Y204.702 E.02301
G1 X214.313 Y205.212 E.01843
G1 X214.031 Y205.539 E.01248
G1 X213.882 Y205.669 E.00572
G1 X213.676 Y205.788 E.00686
G1 X213.406 Y205.911 E.00856
G1 X213.107 Y206.012 E.00914
G1 X212.777 Y206.094 E.00982
G1 X212.419 Y206.152 E.01048
G1 X212.033 Y206.186 E.0112
G1 X211.622 Y206.195 E.01186
G1 X211.187 Y206.177 E.01259
G1 X210.729 Y206.132 E.0133
G1 X210.253 Y206.06 E.01391
G1 X209.258 Y205.835 E.02948
G1 X208.187 Y205.494 E.03247
G1 X207.085 Y205.045 E.03438
G1 X205.948 Y204.485 E.03661
G1 X205.391 Y204.173 E.01846
G1 X201.129 Y201.519 E.14506
G1 X181.751 Y201.265 E.55992
G1 X178.052 Y201.263 E.10689
G1 X176.444 Y201.283 E.04647
G1 X173.689 Y201.372 E.07963
G1 X172.502 Y201.446 E.03437
G1 X171.435 Y201.541 E.03095
G1 X170.472 Y201.661 E.02803
G1 X169.603 Y201.807 E.02548
G1 X168.814 Y201.984 E.02335
G1 X168.095 Y202.194 E.02164
G1 X167.44 Y202.443 E.02025
G1 X166.842 Y202.73 E.01917
G1 X166.293 Y203.058 E.01846
G1 X165.793 Y203.425 E.01794
G1 X165.334 Y203.824 E.01756
G1 X164.909 Y204.254 E.01748
G1 X164.487 Y204.734 E.01846
G1 X163.871 Y205.585 E.03037
G1 X163.306 Y206.601 E.03358
G1 X162.8 Y207.746 E.03618
G1 X162.347 Y209.01 E.03879
G1 X161.942 Y210.383 E.04137
G1 X161.585 Y211.856 E.04379
G1 X161.274 Y213.417 E.04599
G1 X161.011 Y215.055 E.04793
G1 X160.796 Y216.757 E.04955
G1 X160.628 Y218.511 E.05091
G1 X160.51 Y220.304 E.05193
G1 X160.441 Y222.125 E.05265
G1 X160.424 Y223.961 E.05303
G1 X160.458 Y225.797 E.05308
G1 X160.547 Y227.624 E.05284
G1 X160.688 Y229.426 E.05224
G1 X160.887 Y231.195 E.05142
G1 X161.143 Y232.914 E.05021
G1 X161.457 Y234.573 E.04879
G1 X161.831 Y236.155 E.04696
G1 X162.629 Y239.002 E.08542
G1 X163.496 Y241.742 E.08305
G1 X164.434 Y244.385 E.08102
G1 X165.447 Y246.927 E.07909
G1 X166.533 Y249.375 E.07736
G1 X167.696 Y251.725 E.07577
G1 X168.937 Y253.981 E.07439
G1 X170.256 Y256.145 E.07322
G1 X171.655 Y258.215 E.0722
G1 X173.135 Y260.195 E.0714
G1 X174.697 Y262.083 E.07079
G1 X176.341 Y263.883 E.07044
G1 X177.982 Y265.508 E.06672
G1 X179.881 Y267.218 E.07383
G1 X181.78 Y268.757 E.07063
G1 X183.763 Y270.21 E.07104
G1 X185.833 Y271.581 E.07173
G1 X187.991 Y272.868 E.07261
G1 X190.237 Y274.077 E.07369
G1 X192.567 Y275.203 E.07476
G1 X194.565 Y276.068 E.06292
G1 X196.542 Y276.821 E.06113
G1 X197.547 Y277.162 E.03066
G1 X198.551 Y277.477 E.03041
G1 X199.564 Y277.767 E.03045
G1 X200.589 Y278.034 E.03059
G1 X201.625 Y278.276 E.03073
G1 X202.675 Y278.494 E.03099
G1 X203.741 Y278.689 E.03133
G1 X204.832 Y278.863 E.0319
G1 X207.059 Y279.141 E.06485
G1 X209.391 Y279.336 E.06761
G1 X211.835 Y279.45 E.0707
G1 X213.115 Y279.478 E.03698
G1 X215.497 Y279.486 E.06884
G1 X219.134 Y279.438 E.10509
G1 X221.371 Y279.341 E.0647
G1 X222.745 Y279.235 E.03981
G1 X224.735 Y279.003 E.05789
G1 X226.825 Y278.667 E.06115
G1 X229.198 Y278.212 E.06982
G1 X231.288 Y277.766 E.06173
G1 X232.5 Y277.465 E.03609
G1 X233.705 Y277.133 E.03613
G1 X234.905 Y276.77 E.03622
G1 X236.096 Y276.378 E.03624
G1 X237.274 Y275.96 E.03612
G1 X238.434 Y275.516 E.03589
G1 X239.576 Y275.05 E.03562
G1 X240.694 Y274.56 E.03526
G1 X241.784 Y274.051 E.03476
G1 X242.843 Y273.523 E.03419
G1 X243.869 Y272.979 E.03355
G1 X244.857 Y272.419 E.03282
G1 X245.804 Y271.845 E.03199
G1 X246.707 Y271.258 E.03113
G1 X247.561 Y270.66 E.03012
G1 X248.366 Y270.052 E.02914
G1 X249.115 Y269.434 E.02807
G1 X249.806 Y268.807 E.02695
G1 X250.434 Y268.175 E.02573
G1 X250.851 Y267.708 E.01809
G1 X251.273 Y267.196 E.01917
G1 X252.111 Y266.07 E.04057
G1 X252.961 Y264.79 E.04439
G1 X253.812 Y263.381 E.04757
G1 X254.654 Y261.861 E.05019
G1 X255.074 Y261.057 E.02621
G1 X255.888 Y259.404 E.05323
G1 X256.671 Y257.684 E.05459
G1 X257.051 Y256.797 E.02789
G1 X257.768 Y255.012 E.05559
G1 X259.103 Y251.328 E.11319
G1 X259.752 Y249.618 E.05286
G1 X260.327 Y248.196 E.0443
G1 X260.774 Y247.192 E.03176
G1 X260.946 Y246.869 E.01059
G1 X261.018 Y246.789 E.0031
G1 X261.199 Y246.679 E.00613
G1 X261.556 Y246.56 E.01088
G1 X261.775 Y246.517 E.00642
G1 X262.345 Y246.471 E.01652
G1 X262.995 Y246.498 E.0188
G1 X263.312 Y246.536 E.00922
G1 X264.03 Y246.676 E.02116
G1 X264.749 Y246.887 E.02165
G1 X265.45 Y247.167 E.0218
G1 X266.122 Y247.518 E.0219
G1 X266.414 Y247.702 E.00996
G1 X266.736 Y247.939 E.01157
G1 X267.243 Y248.39 E.01961
G1 X267.74 Y248.924 E.02106
G1 X268.221 Y249.536 E.0225
G1 X268.518 Y249.969 E.01516
G1 X268.8 Y250.43 E.01562
G1 X269.06 Y250.905 E.01564
G1 X269.292 Y251.391 E.01556
G1 X270.473 Y254.231 E.08886
G1 X268.933 Y258.723 E.1372
G1 X268.265 Y260.553 E.05627
G1 X267.539 Y262.327 E.05539
G1 X266.751 Y264.054 E.05487
G1 X265.902 Y265.735 E.05439
G1 X264.995 Y267.364 E.05388
G1 X264.029 Y268.943 E.05349
G1 X263.007 Y270.47 E.05309
G1 X261.929 Y271.943 E.05274
G1 X260.797 Y273.363 E.05247
G1 X259.613 Y274.726 E.05217
G1 X258.376 Y276.032 E.05196
G1 X257.088 Y277.281 E.05183
G1 X255.751 Y278.47 E.0517
G1 X254.366 Y279.598 E.0516
G1 X252.933 Y280.664 E.0516
G1 X251.455 Y281.667 E.05161
G1 X249.931 Y282.604 E.0517
G1 X248.364 Y283.477 E.05184
G1 X246.754 Y284.282 E.05201
G1 X245.102 Y285.02 E.05228
G1 X243.723 Y285.564 E.04283
G1 X242.215 Y286.093 E.04617
G1 X240.594 Y286.604 E.04911
G1 X238.875 Y287.095 E.05166
G1 X237.073 Y287.561 E.05379
G1 X235.202 Y288.002 E.05554
G1 X233.278 Y288.414 E.05684
G1 X231.314 Y288.796 E.0578
G1 X229.328 Y289.145 E.05828
G1 X227.331 Y289.458 E.05841
G1 X225.337 Y289.734 E.05814
G1 X223.364 Y289.972 E.05742
G1 X221.425 Y290.167 E.05631
G1 X219.533 Y290.319 E.05483
G1 X217.705 Y290.425 E.05293
G1 X215.955 Y290.485 E.0506
G1 X214.298 Y290.495 E.04787
G1 X212.75 Y290.454 E.04474
G1 X211.328 Y290.36 E.04117
G1 X210.036 Y290.213 E.03759
G1 X207.781 Y289.873 E.06589
G1 X205.593 Y289.506 E.06409
G1 X203.479 Y289.113 E.06212
G1 X201.437 Y288.693 E.06024
G1 X199.462 Y288.244 E.05851
G1 X197.55 Y287.765 E.05695
G1 X195.698 Y287.256 E.05551
G1 X193.901 Y286.713 E.05424
G1 X192.155 Y286.137 E.05311
G1 X190.458 Y285.524 E.05214
G1 X188.804 Y284.875 E.05134
G1 X187.19 Y284.188 E.05069
G1 X185.611 Y283.462 E.0502
G1 X184.065 Y282.694 E.04987
G1 X182.547 Y281.884 E.04973
G1 X181.051 Y281.029 E.04977
G1 X179.576 Y280.129 E.04993
G1 X178.117 Y279.181 E.05028
G1 X176.669 Y278.184 E.05079
G1 X175.238 Y277.142 E.05116
G1 X172.837 Y275.232 E.08862
G1 X170.55 Y273.179 E.08882
G1 X168.369 Y270.977 E.08954
G1 X166.296 Y268.633 E.09043
G1 X164.333 Y266.149 E.09147
G1 X162.481 Y263.53 E.09268
G1 X160.744 Y260.781 E.09396
G1 X159.123 Y257.905 E.09539
G1 X157.619 Y254.906 E.09692
G1 X156.235 Y251.79 E.09851
G1 X154.975 Y248.56 E.10017
G1 X153.838 Y245.221 E.10192
G1 X152.827 Y241.777 E.1037
G1 X151.945 Y238.233 E.10552
G1 X151.192 Y234.592 E.10741
G1 X150.572 Y230.861 E.10929
G1 X150.086 Y227.043 E.11121
G1 X149.737 Y223.142 E.11316
G1 X149.526 Y219.163 E.11512
G1 X149.454 Y215.103 E.11733
G1 X149.461 Y212.588 E.07265
G1 X149.506 Y209.486 E.08964
G1 X149.613 Y207.011 E.07157
G1 X149.728 Y205.605 E.04077
G1 X149.8 Y204.955 E.0189
G1 X149.884 Y204.326 E.01833
G1 X150.092 Y203.07 E.03677
G1 X150.509 Y201.135 E.05719
G1 X151.483 Y197.37 E.11237
G1 X151.821 Y195.95 E.04218
G1 X152.219 Y193.926 E.0596
G1 X152.422 Y192.556 E.04001
G1 X152.507 Y191.839 E.02086
G1 X152.646 Y190.345 E.04334
G1 X152.791 Y187.807 E.07345
G1 X152.882 Y184.739 E.08868
G1 X152.983 Y179.176 E.16078
G1 X153.091 Y176.511 E.07705
G1 X153.167 Y175.335 E.03403
G1 X153.263 Y174.243 E.03168
G1 X153.38 Y173.227 E.02955
G1 X153.52 Y172.275 E.02779
G1 X153.686 Y171.379 E.02635
G1 X153.879 Y170.525 E.0253
G1 X154.103 Y169.701 E.02466
G1 X154.36 Y168.896 E.02442
G1 X154.654 Y168.096 E.02463
G1 X154.987 Y167.289 E.02521
G1 X155.366 Y166.465 E.02622
G1 X155.791 Y165.611 E.02756
G1 X156.265 Y164.722 E.02911
G1 X157.383 Y162.766 E.06508
G1 X158.021 Y161.702 E.03585
G1 X159.056 Y160.061 E.05607
G1 X160.12 Y158.505 E.05447
