; HEADER_BLOCK_START
; generated by OrcaSlicer 2.3.0 on 2025-11-20 at 03:33:00
; total layer number: 10
;_GP_TOTAL_LAYER_NUMBER_PLACEHOLDER
; filament_density: 1.27
; filament_diameter: 1.75
; max_z_height: 2.00
; HEADER_BLOCK_END

; THUMBNAIL_BLOCK_START

;
; THUMBNAIL_BLOCK_END







; external perimeters extrusion width = 0.40mm
; perimeters extrusion width = 0.45mm
; infill extrusion width = 0.45mm
; solid infill extrusion width = 0.45mm
; top infill extrusion width = 0.38mm
; first layer extrusion width = 0.42mm

; EXECUTABLE_BLOCK_START
EXCLUDE_OBJECT_DEFINE NAME=cat3.stl_id_0_copy_0 CENTER=210,210 POLYGON=[[139.901,141.307],[139.914,140.971],[139.951,140.636],[140.011,140.304],[140.093,139.974],[140.197,139.649],[140.322,139.33],[140.468,139.016],[140.634,138.71],[140.817,138.412],[141.021,138.123],[141.241,137.844],[141.478,137.576],[141.731,137.321],[142,137.078],[142.283,136.849],[142.58,136.636],[142.891,136.438],[143.213,136.257],[143.548,136.095],[143.893,135.951],[144.789,135.723],[230.76,128.586],[230.884,128.592],[263.575,132.238],[263.7,132.257],[263.828,132.316],[263.957,132.423],[264.089,132.583],[264.23,132.804],[264.378,133.092],[264.537,133.453],[264.708,133.894],[264.894,134.421],[265.096,135.041],[265.317,135.76],[265.558,136.585],[265.823,137.523],[266.112,138.579],[266.428,139.76],[266.773,141.074],[267.148,142.525],[267.557,144.121],[268.001,145.868],[268.482,147.773],[268.946,149.626],[269.372,151.348],[269.759,152.946],[270.111,154.43],[270.428,155.805],[270.711,157.082],[270.962,158.267],[271.182,159.369],[271.372,160.395],[271.534,161.354],[271.668,162.253],[271.776,163.102],[271.86,163.906],[271.92,164.675],[280.099,286.348],[280.096,286.749],[280.062,287.137],[280,287.511],[279.908,287.87],[279.786,288.213],[279.633,288.541],[279.454,288.852],[279.245,289.145],[279.006,289.42],[278.74,289.676],[278.445,289.913],[278.122,290.13],[277.77,290.326],[277.392,290.501],[276.467,290.674],[274.625,290.829],[271.968,290.965],[268.595,291.084],[264.605,291.184],[260.098,291.266],[255.174,291.33],[249.932,291.377],[244.472,291.404],[238.893,291.414],[233.295,291.406],[227.778,291.379],[222.44,291.334],[217.382,291.271],[212.705,291.19],[208.506,291.091],[204.886,290.973],[201.943,290.837],[199.779,290.683],[198.492,290.511],[197.592,290.288],[196.659,290.015],[195.698,289.692],[194.709,289.323],[193.697,288.907],[192.664,288.448],[191.613,287.946],[190.547,287.404],[189.469,286.823],[188.382,286.205],[187.289,285.551],[186.193,284.864],[185.096,284.144],[184.002,283.395],[182.913,282.616],[181.832,281.811],[180.763,280.98],[179.708,280.126],[178.67,279.25],[177.652,278.353],[175.953,276.741],[174.312,275.014],[172.731,273.175],[171.209,271.224],[169.748,269.163],[168.348,266.993],[167.009,264.714],[165.732,262.329],[164.517,259.838],[163.365,257.241],[162.276,254.542],[161.252,251.739],[160.291,248.836],[159.395,245.832],[158.564,242.729],[157.798,239.528],[157.099,236.23],[156.466,232.836],[139.955,141.771],[139.916,141.514],[139.901,141.307]]
M106 S0
M106 P2 S0
;TYPE:Custom
;N4 MAX
PRINT_START BED_TEMP=70 EXTRUDER_TEMP=240 TOTAL_LAYER=10 TOTAL_LAYER=10 AREA_START=138.525,127.211 AREA_END=281.476,292.791 BED_MESH=adaptive
G90
G21
M83 ; use relative distances for extrusion
; filament start gcode
M106 S0
M106 P2 S0
;LAYER_CHANGE
;Z:0.2
;HEIGHT:0.2
;BEFORE_LAYER_CHANGE
G92 E0
;0.2
SET_PRINT_STATS_INFO CURRENT_LAYER=1


G1 E-.7 F3600
;G1 F9000 X0 Y100
;M400
TIMELAPSE_TAKE_FRAME
;AFTER_LAYER_CHANGE
;0.2
;_SET_FAN_SPEED_CHANGING_LAYER
SET_VELOCITY_LIMIT ACCEL=1000
SET_VELOCITY_LIMIT SQUARE_CORNER_VELOCITY=7
G1 Z.6 F18000
G1 X139.714 Y137.962
G1 Z.6
G1 Z.2
G1 E.7 F2700
;TYPE:Skirt
;WIDTH:0.42
G1 F3000
G1 X140.587 Y136.789 E.04355
G1 X141.887 Y135.67 E.05107
G1 X142.63 Y135.221 E.02587
G1 X143.435 Y134.854 E.02634
G1 X144.691 Y134.539 E.03859
G1 X230.941 Y127.405 E2.57786
G1 X263.878 Y131.082 E.98717
G1 X264.328 Y131.238 E.01421
G1 X264.715 Y131.508 E.01406
G1 X265.287 Y132.261 E.02814
G1 X265.828 Y133.498 E.04024
G1 X266.701 Y136.262 E.08632
G1 X268.709 Y143.829 E.2332
G1 X271.588 Y155.548 E.35944
G1 X272.705 Y161.156 E.17033
G1 X273.105 Y164.595 E.10313
G1 X281.284 Y286.268 E3.6324
G1 X281.247 Y287.238 E.0289
G1 X281.059 Y288.165 E.02818
G1 X280.864 Y288.713 E.01732
G1 X280.421 Y289.542 E.02801
G1 X279.905 Y290.198 E.02485
G1 X279.189 Y290.84 E.02865
G1 X278.35 Y291.364 E.02946
G1 X277.61 Y291.669 E.02385
G1 X276.566 Y291.858 E.0316
G1 X272.028 Y292.152 E.13545
G1 X260.113 Y292.454 E.35503
G1 X238.891 Y292.603 E.63215
G1 X217.368 Y292.459 E.64111
G1 X204.847 Y292.161 E.37306
G1 X199.694 Y291.869 E.15373
G1 X198.334 Y291.689 E.04086
G1 X197.306 Y291.442 E.03151
G1 X194.293 Y290.437 E.0946
G1 X192.151 Y289.52 E.06939
G1 X188.881 Y287.856 E.1093
G1 X185.54 Y285.858 E.11596
G1 X182.203 Y283.569 E.12054
G1 X178.96 Y281.05 E.12232
G1 X176.833 Y279.215 E.08365
G1 X175.091 Y277.56 E.07159
G1 X173.45 Y275.833 E.07096
G1 X171.793 Y273.906 E.07568
G1 X170.239 Y271.911 E.07533
G1 X168.749 Y269.807 E.0768
G1 X167.349 Y267.637 E.07692
G1 X165.961 Y265.275 E.08161
G1 X164.663 Y262.85 E.08192
G1 X163.43 Y260.32 E.08384
G1 X162.278 Y257.723 E.08463
G1 X161.16 Y254.95 E.08905
G1 X159.162 Y249.21 E.18106
G1 X158.256 Y246.172 E.09443
G1 X156.642 Y239.805 E.19565
G1 X155.93 Y236.448 E.10221
G1 X138.786 Y141.983 E2.85975
G1 X138.714 Y141.261 E.02161
G1 X138.857 Y140.017 E.03729
G1 X139.215 Y138.896 E.03505
G1 X139.622 Y138.086 E.02703
G1 X139.69 Y137.994 E.00341
G1 E-.595 F3600
;WIPE_START
G1 F18000
G1 X140.287 Y137.192 E-.105
;WIPE_END
EXCLUDE_OBJECT_START NAME=cat3.stl_id_0_copy_0
G1 Z.6
G1 X193.488 Y272.497 Z.6
G1 Z.2
G1 E.7 F2700
;TYPE:Inner wall
G1 F3000
G1 X193.875 Y272.242 E.0134
G1 X194.192 Y271.858 E.01439
G1 X194.418 Y271.454 E.01337
G1 X194.603 Y271.008 E.01395
G1 X194.827 Y270.275 E.02213
G1 X194.962 Y269.699 E.01711
G1 X195.133 Y268.753 E.02775
G1 X195.274 Y267.688 E.03105
G1 X195.996 Y260.578 E.20648
G1 X196.411 Y256.705 E.11256
G1 X196.986 Y251.716 E.1451
G1 X197.342 Y248.898 E.08206
G1 X197.684 Y246.446 E.07153
G1 X198.013 Y244.328 E.06192
G1 X198.492 Y241.715 E.07676
G1 X198.808 Y240.296 E.04202
G1 X199.362 Y238.216 E.06217
G1 X200.2 Y235.357 E.0861
G1 X201.099 Y232.565 E.08473
G1 X202.063 Y229.834 E.08368
G1 X203.094 Y227.158 E.08287
G1 X204.196 Y224.527 E.08242
G1 X204.77 Y223.236 E.04083
G1 X205.982 Y220.666 E.0821
G1 X207.268 Y218.131 E.08212
G1 X208.636 Y215.621 E.08259
G1 X209.347 Y214.378 E.04139
G1 X211.779 Y210.237 E.13875
G1 X213.38 Y207.351 E.09536
G1 X214.888 Y204.472 E.09389
G1 X216.302 Y201.588 E.09283
G1 X217.628 Y198.689 E.0921
G1 X218.865 Y195.763 E.09179
G1 X220.021 Y192.801 E.09184
G1 X221.094 Y189.793 E.09228
G1 X222.09 Y186.729 E.09311
G1 X223.011 Y183.596 E.09434
G1 X223.859 Y180.386 E.09592
G1 X224.638 Y177.089 E.09791
G1 X225.351 Y173.691 E.10029
G1 X226.001 Y170.187 E.10299
G1 X226.591 Y166.56 E.10615
G1 X227.124 Y162.805 E.1096
G1 X227.603 Y158.908 E.11343
G1 X228.032 Y154.859 E.11765
G1 X228.412 Y150.648 E.12217
G1 X229.124 Y141.437 E.26692
G1 X229.383 Y138.682 E.07997
G1 X229.516 Y137.445 E.03593
G1 X229.787 Y135.229 E.06452
G1 X230.067 Y133.37 E.0543
G1 X230.355 Y131.863 E.04432
G1 X230.649 Y130.701 E.03465
G1 X230.788 Y130.273 E.013
G1 X230.996 Y129.79 E.01519
G1 X231.204 Y129.916 E.00703
G1 X231.922 Y130.458 E.02598
G1 X232.503 Y130.955 E.02208
G1 X233.549 Y131.926 E.04124
G1 X234.338 Y132.704 E.03203
G1 X236.515 Y134.959 E.09055
G1 X238.057 Y136.508 E.06315
G1 X239.46 Y137.816 E.05543
G1 X240.129 Y138.392 E.0255
G1 X240.775 Y138.914 E.02399
G1 X241.406 Y139.385 E.02277
G1 X242.028 Y139.809 E.02174
G1 X242.644 Y140.186 E.02086
G1 X243.259 Y140.518 E.02021
G1 X243.877 Y140.807 E.01972
G1 X244.5 Y141.053 E.01934
G1 X245.131 Y141.258 E.01917
G1 X245.77 Y141.424 E.01907
G1 X246.422 Y141.554 E.01921
G1 X247.089 Y141.65 E.01947
G1 X247.782 Y141.717 E.0201
G1 X249.205 Y141.771 E.04116
G1 X249.912 Y141.762 E.02041
G1 X250.601 Y141.723 E.01995
G1 X251.28 Y141.654 E.01971
G1 X251.949 Y141.556 E.01955
G1 X252.608 Y141.426 E.0194
G1 X253.254 Y141.266 E.01925
G1 X253.892 Y141.075 E.01923
G1 X254.517 Y140.852 E.01918
G1 X255.133 Y140.599 E.01924
G1 X255.737 Y140.314 E.0193
G1 X256.331 Y139.999 E.01942
G1 X256.915 Y139.652 E.01962
G1 X257.488 Y139.274 E.01984
G1 X258.049 Y138.866 E.02006
G1 X258.601 Y138.428 E.02036
G1 X259.144 Y137.959 E.02073
G1 X259.678 Y137.459 E.02112
G1 X260.203 Y136.93 E.02154
G1 X260.719 Y136.37 E.02198
G1 X261.794 Y135.131 E.04742
G1 X262.718 Y134.17 E.0385
G1 X263.416 Y133.548 E.02701
G1 X263.55 Y133.853 E.00961
G1 X263.885 Y134.762 E.02799
G1 X264.536 Y136.883 E.06412
G1 X265.084 Y138.856 E.05917
G1 X266.117 Y142.79 E.11751
G1 X268.338 Y151.601 E.26253
G1 X269.39 Y156.041 E.13183
G1 X269.92 Y158.484 E.07223
G1 X270.136 Y159.567 E.03191
G1 X270.483 Y161.525 E.05747
G1 X270.613 Y162.393 E.02537
G1 X270.8 Y164.008 E.04697
G1 X270.857 Y164.744 E.02131
G1 X270.894 Y165.45 E.02044
G1 X270.907 Y166.839 E.04012
G1 X270.887 Y167.508 E.01934
G1 X270.798 Y168.907 E.04051
G1 X270.724 Y169.667 E.02206
G1 X270.508 Y171.177 E.04407
G1 X270.203 Y172.647 E.04338
G1 X270.018 Y173.36 E.02129
G1 X269.809 Y174.076 E.02155
G1 X269.575 Y174.788 E.02165
G1 X269.031 Y176.209 E.04395
G1 X268.72 Y176.919 E.0224
G1 X268.385 Y177.625 E.02258
G1 X267.619 Y179.075 E.04739
G1 X267.201 Y179.793 E.02401
G1 X266.261 Y181.281 E.05085
G1 X265.198 Y182.806 E.05371
G1 X263.141 Y185.56 E.09931
G1 X262.501 Y186.445 E.03156
G1 X261.923 Y187.28 E.02933
G1 X261.401 Y188.077 E.02755
G1 X260.931 Y188.856 E.02627
G1 X260.509 Y189.627 E.0254
G1 X260.136 Y190.404 E.0249
G1 X259.806 Y191.196 E.0248
G1 X259.519 Y192.016 E.0251
G1 X259.27 Y192.872 E.02578
G1 X259.053 Y193.778 E.02689
G1 X258.865 Y194.744 E.02845
G1 X258.701 Y195.783 E.0304
G1 X258.554 Y196.915 E.03297
G1 X258.296 Y199.488 E.0747
G1 X257.228 Y213.54 E.40719
G1 X256.731 Y219.496 E.17268
G1 X256.192 Y225.484 E.1737
G1 X256.047 Y227.471 E.05756
G1 X255.939 Y229.414 E.05622
G1 X255.869 Y231.318 E.05507
G1 X255.837 Y233.194 E.05422
G1 X255.845 Y235.046 E.05351
G1 X255.894 Y236.882 E.05307
G1 X255.984 Y238.71 E.05286
G1 X256.116 Y240.535 E.05288
G1 X256.291 Y242.366 E.05315
G1 X256.509 Y244.209 E.05361
G1 X256.772 Y246.07 E.05431
G1 X257.08 Y247.959 E.05529
G1 X257.434 Y249.88 E.05645
G1 X257.833 Y251.843 E.05785
G1 X258.28 Y253.853 E.05952
G1 X258.774 Y255.918 E.06135
G1 X259.317 Y258.047 E.06347
G1 X259.91 Y260.246 E.06581
G1 X261.033 Y264.186 E.11836
G1 X261.881 Y267.054 E.08643
G1 X262.264 Y268.285 E.03723
G1 X262.629 Y269.391 E.03365
G1 X262.983 Y270.388 E.03057
G1 X263.335 Y271.285 E.02786
G1 X263.692 Y272.097 E.02563
G1 X264.067 Y272.833 E.02386
G1 X264.464 Y273.502 E.02247
G1 X264.893 Y274.111 E.02153
G1 X265.359 Y274.665 E.02091
G1 X265.863 Y275.169 E.0206
G1 X266.409 Y275.63 E.02065
G1 X266.996 Y276.056 E.02095
G1 X267.627 Y276.459 E.02164
G1 X268.314 Y276.853 E.02289
G1 X269.846 Y277.646 E.04985
G1 X273.147 Y279.291 E.10655
G1 X274.405 Y279.961 E.04118
G1 X275.418 Y280.55 E.03386
G1 X276.213 Y281.077 E.02756
G1 X276.835 Y281.571 E.02295
G1 X277.284 Y282.017 E.0183
G1 X277.673 Y282.514 E.01823
G1 X278.006 Y283.066 E.01861
G1 X278.325 Y283.722 E.02108
G1 X278.654 Y284.527 E.02514
G1 X278.784 Y284.923 E.01203
G1 X278.887 Y285.311 E.01163
G1 X278.963 Y285.685 E.01101
G1 X279.011 Y286.041 E.01037
G1 X279.034 Y286.38 E.00982
G1 X279.032 Y286.7 E.00925
G1 X279.006 Y287.003 E.0088
G1 X278.958 Y287.29 E.0084
G1 X278.889 Y287.559 E.00802
G1 X278.799 Y287.81 E.0077
G1 X278.558 Y288.275 E.01514
G1 X278.407 Y288.486 E.00749
G1 X278.234 Y288.686 E.00763
G1 X278.037 Y288.876 E.00791
G1 X277.813 Y289.055 E.00827
G1 X277.564 Y289.222 E.00867
G1 X277.066 Y289.479 E.01621
G1 X276.324 Y289.618 E.02181
G1 X274.553 Y289.767 E.05135
G1 X271.922 Y289.902 E.07612
G1 X268.562 Y290.02 E.09711
G1 X264.581 Y290.12 E.11507
G1 X260.081 Y290.202 E.13004
G1 X255.163 Y290.266 E.14212
G1 X244.468 Y290.34 E.30902
G1 X233.298 Y290.342 E.32272
G1 X222.45 Y290.27 E.31346
G1 X217.399 Y290.207 E.14594
G1 X212.726 Y290.126 E.13503
G1 X208.535 Y290.027 E.12111
G1 X204.927 Y289.91 E.1043
G1 X202.005 Y289.775 E.08453
G1 X199.887 Y289.624 E.06135
G1 X198.691 Y289.464 E.03487
G1 X197.869 Y289.26 E.02445
G1 X196.978 Y289 E.02684
G1 X196.053 Y288.689 E.02818
G1 X195.097 Y288.332 E.02949
G1 X194.115 Y287.928 E.03067
G1 X193.109 Y287.481 E.03181
G1 X192.083 Y286.991 E.03285
G1 X191.04 Y286.461 E.0338
G1 X189.984 Y285.892 E.03467
G1 X188.918 Y285.286 E.03544
G1 X187.844 Y284.644 E.03614
G1 X186.767 Y283.968 E.03674
G1 X185.688 Y283.26 E.03729
G1 X184.612 Y282.523 E.03768
G1 X183.54 Y281.756 E.03808
G1 X182.476 Y280.964 E.03833
G1 X181.424 Y280.146 E.0385
G1 X180.386 Y279.306 E.0386
G1 X179.365 Y278.444 E.0386
G1 X178.37 Y277.568 E.03831
G1 X176.705 Y275.988 E.0663
G1 X175.101 Y274.3 E.06727
G1 X173.554 Y272.5 E.06857
G1 X172.063 Y270.589 E.07005
G1 X170.629 Y268.567 E.07162
G1 X169.254 Y266.435 E.0733
G1 X167.937 Y264.193 E.07512
G1 X166.679 Y261.844 E.07698
G1 X165.481 Y259.389 E.07894
G1 X164.345 Y256.826 E.081
G1 X163.27 Y254.16 E.08305
G1 X162.257 Y251.389 E.08526
G1 X161.306 Y248.517 E.08742
G1 X160.419 Y245.542 E.08968
G1 X159.595 Y242.468 E.09197
G1 X158.836 Y239.294 E.09429
G1 X158.142 Y236.022 E.09663
G1 X157.514 Y232.653 E.09901
G1 X156.952 Y229.191 E.10135
G1 X156.404 Y225.172 E.11719
G1 X156.225 Y223.142 E.05889
G1 X156.028 Y220.266 E.08327
G1 X155.82 Y216.724 E.10254
G1 X155.612 Y212.685 E.11685
G1 X155.294 Y205.301 E.21352
G1 X154.885 Y194.199 E.321
G1 X154.729 Y190.678 E.10183
G1 X154.563 Y187.461 E.09306
G1 X154.379 Y184.515 E.0853
G1 X154.171 Y181.809 E.07843
G1 X153.933 Y179.312 E.07247
G1 X153.659 Y176.994 E.06743
G1 X153.341 Y174.824 E.06336
G1 X152.975 Y172.772 E.06022
G1 X152.553 Y170.811 E.05797
G1 X152.07 Y168.91 E.05667
G1 X151.521 Y167.041 E.05628
G1 X150.901 Y165.176 E.05679
G1 X150.204 Y163.285 E.05823
G1 X149.424 Y161.338 E.0606
G1 X148.557 Y159.307 E.06381
G1 X147.595 Y157.158 E.06802
G1 X144.603 Y150.745 E.20447
G1 X143.554 Y148.411 E.07394
G1 X142.653 Y146.291 E.06653
G1 X142.146 Y145.029 E.0393
G1 X141.72 Y143.903 E.03478
G1 X141.382 Y142.935 E.02963
G1 X141.141 Y142.148 E.02378
G1 X141.005 Y141.583 E.0168
G1 X140.968 Y141.268 E.00916
G1 X140.976 Y141.049 E.00635
G1 X141.003 Y140.803 E.00713
G1 X141.118 Y140.265 E.01591
G1 X141.302 Y139.749 E.01582
G1 X141.556 Y139.244 E.01634
G1 X141.876 Y138.759 E.01678
G1 X142.255 Y138.304 E.01711
G1 X142.702 Y137.879 E.01782
G1 X142.917 Y137.704 E.00802
G1 X143.437 Y137.353 E.01811
G1 X143.998 Y137.06 E.0183
G1 X144.23 Y136.963 E.00727
G1 X144.935 Y136.784 E.021
G1 X145.651 Y136.767 E.02069
G1 X146.439 Y136.908 E.02315
G1 X147.3 Y137.217 E.02642
G1 X148.223 Y137.7 E.0301
G1 X149.193 Y138.357 E.03386
G1 X150.198 Y139.181 E.03756
G1 X151.225 Y140.167 E.04112
G1 X152.264 Y141.306 E.04454
G1 X153.307 Y142.587 E.04772
G1 X154.342 Y144.004 E.05071
G1 X155.365 Y145.547 E.05347
G1 X156.368 Y147.206 E.05602
G1 X157.342 Y148.974 E.05833
G1 X158.282 Y150.842 E.06043
G1 X159.18 Y152.801 E.06225
G1 X160.031 Y154.842 E.0639
G1 X160.827 Y156.958 E.0653
G1 X161.562 Y159.138 E.06649
G1 X162.23 Y161.377 E.0675
G1 X162.991 Y164.273 E.08652
G1 X163.329 Y165.711 E.04269
G1 X163.644 Y167.17 E.04311
G1 X163.935 Y168.657 E.04378
G1 X164.205 Y170.188 E.04492
G1 X164.454 Y171.774 E.0464
G1 X164.682 Y173.433 E.04837
G1 X164.893 Y175.176 E.05074
G1 X165.087 Y177.013 E.05338
G1 X165.43 Y181.047 E.11696
G1 X165.72 Y185.63 E.1327
G1 X165.849 Y188.16 E.07319
G1 X165.968 Y190.869 E.07834
G1 X166.184 Y196.877 E.17369
G1 X166.472 Y207.246 E.29971
G1 X166.671 Y213.567 E.18275
G1 X166.895 Y219.085 E.15956
G1 X167.02 Y221.575 E.07203
G1 X167.297 Y226.049 E.1295
G1 X167.452 Y228.065 E.05843
G1 X167.62 Y229.944 E.05451
G1 X167.802 Y231.699 E.05097
G1 X167.998 Y233.339 E.04773
G1 X168.211 Y234.877 E.04487
G1 X168.44 Y236.323 E.0423
G1 X168.688 Y237.688 E.04006
G1 X168.955 Y238.981 E.03816
G1 X169.244 Y240.213 E.03656
G1 X169.553 Y241.394 E.03528
G1 X169.885 Y242.535 E.03433
G1 X170.239 Y243.647 E.0337
G1 X170.783 Y245.197 E.04748
