; HEADER_BLOCK_START
; generated by OrcaSlicer 2.3.1 on 2025-12-05 at 12:08:12
; total layer number: 36
; filament_density: 1.27
; filament_diameter: 1.75
; max_z_height: 10.00
; HEADER_BLOCK_END

; THUMBNAIL_BLOCK_START

;
; THUMBNAIL_BLOCK_END







; external perimeters extrusion width = 0.40mm
; perimeters extrusion width = 0.45mm
; infill extrusion width = 0.45mm
; solid infill extrusion width = 0.45mm
; top infill extrusion width = 0.45mm
; first layer extrusion width = 0.42mm

; EXECUTABLE_BLOCK_START
EXCLUDE_OBJECT_DEFINE NAME=Couvercle-ReservoirCroquettesChat-v2.stl_id_0_copy_0 CENTER=210,210 POLYGON=[[146.772,182.1],[273.228,182.1],[268.075,205.636],[266.496,208.057],[264.817,210.409],[263.04,212.689],[261.168,214.891],[259.205,217.012],[257.154,219.048],[255.019,220.996],[252.803,222.852],[250.511,224.612],[248.146,226.275],[245.714,227.835],[243.218,229.292],[240.662,230.642],[238.052,231.883],[235.391,233.012],[232.685,234.028],[229.939,234.929],[227.157,235.713],[224.345,236.379],[221.507,236.925],[218.648,237.351],[215.774,237.656],[212.89,237.839],[210,237.9],[207.11,237.839],[204.226,237.656],[201.352,237.351],[198.493,236.925],[195.655,236.379],[192.843,235.713],[190.061,234.929],[187.315,234.028],[184.609,233.012],[181.948,231.883],[179.338,230.642],[176.782,229.292],[174.286,227.835],[171.854,226.275],[169.489,224.612],[167.197,222.852],[164.981,220.996],[162.846,219.048],[160.795,217.012],[158.832,214.891],[156.96,212.689],[155.183,210.409],[153.504,208.057],[151.925,205.636],[146.772,182.1]]
M73 P0 R39
M106 S0
M106 P2 S0
;TYPE:Custom
;N4 MAX
PRINT_START BED_TEMP=70 EXTRUDER_TEMP=240 TOTAL_LAYER=36 TOTAL_LAYER=36 AREA_START=147.334,182.258 AREA_END=272.666,237.729 BED_MESH=adaptive
G90
G21
M83 ; use relative distances for extrusion
; filament start gcode
M106 S0
M106 P2 S0
;LAYER_CHANGE
;Z:0.2
;HEIGHT:0.2
;BEFORE_LAYER_CHANGE
G92 E0
;0.2
SET_PRINT_STATS_INFO CURRENT_LAYER=1


G1 E-.7 F3600
;G1 F9000 X0 Y100
;M400
TIMELAPSE_TAKE_FRAME
;AFTER_LAYER_CHANGE
;0.2
;_SET_FAN_SPEED_CHANGING_LAYER
SET_VELOCITY_LIMIT ACCEL=1000 ACCEL_TO_DECEL=500
SET_VELOCITY_LIMIT SQUARE_CORNER_VELOCITY=7
G1 Z.6 F18000
G1 X161.716 Y182.447
G1 Z.6
G1 Z.2
G1 E.7 F2700
;TYPE:Skirt
;WIDTH:0.42
G1 F3000
G1 X271.32 Y182.447 E3.26475
G1 X272.194 Y182.83 E.02843
G1 X272.481 Y183.89 E.0327
G1 X267.793 Y205.302 E.6529
G1 X267.625 Y205.701 E.0129
G1 X265.68 Y208.614 E.10435
G1 X264.323 Y210.49 E.06897
G1 X262.519 Y212.776 E.08674
G1 X260.62 Y214.984 E.08674
G1 X258.656 Y217.078 E.08553
G1 X256.103 Y219.549 E.10583
G1 X254.38 Y221.09 E.06884
G1 X252.162 Y222.917 E.0856
G1 X249.838 Y224.673 E.08676
G1 X247.41 Y226.347 E.08785
G1 X244.974 Y227.877 E.08567
G1 X242.414 Y229.337 E.0878
G1 X239.824 Y230.669 E.08674
G1 X237.18 Y231.888 E.08674
G1 X234.516 Y232.982 E.08577
G1 X231.747 Y233.983 E.0877
G1 X228.969 Y234.854 E.08674
G1 X226.156 Y235.606 E.08674
G1 X223.313 Y236.236 E.08673
G1 X220.446 Y236.745 E.08674
G1 X217.559 Y237.13 E.08673
G1 X214.659 Y237.391 E.08673
G1 X211.136 Y237.541 E.10504
G1 X208.249 Y237.528 E.08599
G1 X205.341 Y237.391 E.08674
G1 X202.441 Y237.13 E.08673
G1 X199.526 Y236.74 E.08758
G1 X196.687 Y236.236 E.08589
G1 X193.815 Y235.599 E.08763
G1 X191.001 Y234.846 E.08676
G1 X188.253 Y233.983 E.08582
G1 X186.083 Y233.207 E.06862
G1 X182.82 Y231.888 E.10484
G1 X180.176 Y230.669 E.08674
G1 X177.586 Y229.337 E.08674
G1 X175.056 Y227.895 E.08674
G1 X172.59 Y226.347 E.08674
G1 X170.192 Y224.695 E.08674
G1 X167.867 Y222.941 E.08674
G1 X165.62 Y221.09 E.08674
G1 X163.453 Y219.144 E.08674
G1 X161.372 Y217.107 E.08674
G1 X159.38 Y214.984 E.08674
G1 X157.868 Y213.232 E.06891
G1 X155.651 Y210.456 E.10583
G1 X153.973 Y208.129 E.08545
G1 X152.375 Y205.701 E.08659
G1 X152.207 Y205.302 E.0129
G1 X147.519 Y183.89 E.6529
G1 X147.706 Y182.954 E.02843
G1 X148.68 Y182.447 E.0327
G1 X161.676 Y182.447 E.38711
; printing object Couvercle-ReservoirCroquettesChat-v2.stl id:0 copy 0
G1 E-.595 F3600
;WIPE_START
G1 F3000
G1 X162.676 Y182.447 E-.105
;WIPE_END
EXCLUDE_OBJECT_START NAME=Couvercle-ReservoirCroquettesChat-v2.stl_id_0_copy_0
G1 Z.6 F18000
G1 X154.646 Y204.512 Z.6
G1 Z.2
G1 E.7 F2700
;TYPE:Inner wall
;WIDTH:0.419999
G1 F3000
G1 X150.374 Y184.999 E.595
G1 X269.626 Y184.999 E3.55212
G1 X265.354 Y204.512 E.595
G1 X263.906 Y206.709 E.07839
G1 X262.26 Y208.987 E.0837
G1 X260.518 Y211.192 E.0837
G1 X258.684 Y213.321 E.0837
G1 X256.759 Y215.368 E.0837
G1 X254.749 Y217.332 E.0837
G1 X252.656 Y219.207 E.0837
G1 X250.485 Y220.991 E.0837
G1 X248.239 Y222.68 E.0837
G1 X245.923 Y224.271 E.0837
G1 X243.541 Y225.761 E.0837
G1 X241.097 Y227.148 E.0837
G1 X238.596 Y228.429 E.0837
G1 X236.043 Y229.601 E.08368
G1 X233.281 Y230.723 E.08881
G1 X230.795 Y231.612 E.07862
G1 X228.112 Y232.447 E.08371
G1 X225.395 Y233.165 E.0837
G1 X222.65 Y233.767 E.0837
G1 X219.882 Y234.251 E.0837
G1 X217.096 Y234.615 E.0837
G1 X214.297 Y234.859 E.0837
G1 X211.489 Y234.983 E.0837
G1 X208.68 Y234.987 E.08368
G1 X205.703 Y234.859 E.08877
G1 X202.904 Y234.615 E.08368
G1 X200.118 Y234.251 E.0837
G1 X197.35 Y233.767 E.0837
G1 X194.605 Y233.165 E.0837
G1 X191.888 Y232.447 E.0837
G1 X189.205 Y231.612 E.0837
G1 X186.56 Y230.663 E.0837
G1 X183.958 Y229.601 E.08372
G1 X181.404 Y228.429 E.0837
G1 X178.903 Y227.148 E.0837
G1 X176.459 Y225.761 E.0837
G1 X174.077 Y224.271 E.0837
G1 X171.761 Y222.68 E.0837
G1 X169.515 Y220.991 E.0837
G1 X167.344 Y219.207 E.0837
G1 X165.251 Y217.332 E.0837
G1 X163.241 Y215.368 E.0837
G1 X161.316 Y213.32 E.08371
G1 X159.592 Y211.322 E.07862
G1 X157.739 Y208.986 E.0888
G1 X156.094 Y206.709 E.08367
G1 X154.668 Y204.545 E.0772
G1 X154.293 Y204.661 F18000
G1 F3000
G1 X149.905 Y184.622 E.61104
G1 X270.095 Y184.622 E3.58003
G1 X265.707 Y204.661 E.61104
G1 X264.216 Y206.924 E.08072
G1 X262.561 Y209.214 E.08418
G1 X260.809 Y211.432 E.08418
G1 X258.964 Y213.573 E.08418
G1 X257.029 Y215.632 E.08418
G1 X255.007 Y217.607 E.08418
G1 X252.902 Y219.493 E.08418
G1 X250.718 Y221.287 E.08418
G1 X248.46 Y222.986 E.08418
G1 X246.13 Y224.586 E.08418
G1 X243.734 Y226.085 E.08418
G1 X241.276 Y227.48 E.08418
G1 X238.761 Y228.768 E.08418
G1 X236.193 Y229.947 E.08417
G1 X233.415 Y231.075 E.08929
G1 X230.915 Y231.969 E.0791
G1 X228.216 Y232.809 E.08419
G1 X225.484 Y233.532 E.08418
G1 X222.723 Y234.137 E.08418
G1 X219.939 Y234.623 E.08418
G1 X217.137 Y234.99 E.08418
G1 X214.321 Y235.236 E.08418
G1 X211.498 Y235.36 E.08418
G1 X208.672 Y235.364 E.08417
G1 X205.678 Y235.235 E.08926
G1 X202.863 Y234.99 E.08417
G1 X200.061 Y234.623 E.08418
G1 X197.277 Y234.137 E.08418
G1 X194.516 Y233.532 E.08418
G1 X191.784 Y232.809 E.08418
G1 X189.085 Y231.97 E.08418
G1 X186.425 Y231.015 E.08418
G1 X183.808 Y229.947 E.0842
G1 X181.239 Y228.768 E.08418
G1 X178.724 Y227.48 E.08418
G1 X176.266 Y226.085 E.08418
G1 X173.87 Y224.586 E.08418
G1 X171.54 Y222.986 E.08418
G1 X169.282 Y221.287 E.08418
G1 X167.098 Y219.493 E.08418
G1 X164.993 Y217.607 E.08418
G1 X162.971 Y215.632 E.08418
G1 X161.036 Y213.573 E.08419
G1 X159.301 Y211.562 E.07909
G1 X157.439 Y209.214 E.08929
G1 X155.784 Y206.924 E.08416
G1 X154.315 Y204.694 E.07952
G1 X153.919 Y204.818 F18000
;TYPE:Outer wall
G1 F3000
G1 X149.41 Y184.223 E.628
G1 X270.59 Y184.223 E3.60954
G1 X266.081 Y204.818 E.628
G1 X264.544 Y207.15 E.08317
G1 X262.879 Y209.455 E.08469
G1 X261.117 Y211.686 E.08469
G1 X259.26 Y213.84 E.08469
G1 X257.313 Y215.912 E.08469
G1 X255.279 Y217.898 E.08469
G1 X253.162 Y219.796 E.08469
M73 P1 R39
G1 X250.965 Y221.601 E.08469
G1 X248.692 Y223.31 E.08469
G1 X246.349 Y224.92 E.08469
G1 X243.938 Y226.428 E.08469
G1 X241.465 Y227.831 E.08469
G1 X238.935 Y229.127 E.08469
G1 X236.351 Y230.313 E.08469
G1 X233.557 Y231.447 E.08981
G1 X231.041 Y232.348 E.0796
G1 X228.326 Y233.192 E.08469
G1 X225.578 Y233.92 E.08469
G1 X222.8 Y234.528 E.08469
G1 X219.999 Y235.017 E.08469
G1 X217.18 Y235.386 E.08469
G1 X214.348 Y235.633 E.08469
G1 X211.507 Y235.759 E.08469
G1 X208.664 Y235.762 E.08469
G1 X205.652 Y235.633 E.08979
G1 X202.82 Y235.386 E.08469
G1 X200.001 Y235.017 E.08469
G1 X197.2 Y234.528 E.08469
G1 X194.422 Y233.92 E.08469
G1 X191.674 Y233.192 E.08469
G1 X188.959 Y232.348 E.08469
G1 X186.283 Y231.387 E.08469
G1 X183.649 Y230.313 E.08471
G1 X181.065 Y229.127 E.08469
G1 X178.535 Y227.831 E.08469
G1 X176.062 Y226.428 E.08469
G1 X173.651 Y224.92 E.08469
G1 X171.308 Y223.31 E.08469
G1 X169.035 Y221.601 E.08469
G1 X166.838 Y219.796 E.08469
G1 X164.721 Y217.898 E.08469
G1 X162.687 Y215.912 E.08469
G1 X160.74 Y213.84 E.08469
G1 X158.994 Y211.817 E.07959
G1 X157.121 Y209.455 E.0898
G1 X155.456 Y207.15 E.08469
G1 X153.941 Y204.852 E.08198
G1 E-.595 F3600
;WIPE_START
G1 F3000
G1 X153.727 Y203.875 E-.105
;WIPE_END
G1 Z.6 F18000
G1 X269.349 Y185.736 Z.6
G1 Z.2
G1 E.7 F2700
;TYPE:Bottom surface
;WIDTH:0.421181
G1 F4800
G1 X268.895 Y185.282 E.01918
G1 X268.36 Y185.282 E.01598
G1 X269.111 Y186.032 E.03171
G1 X269.014 Y186.471 E.01342
G1 X267.825 Y185.282 E.05025
G1 X267.29 Y185.282 E.01598
G1 X268.918 Y186.91 E.06879
G1 X268.822 Y187.348 E.01342
G1 X266.755 Y185.282 E.08734
G1 X266.22 Y185.282 E.01598
G1 X268.726 Y187.787 E.10588
G1 X268.63 Y188.226 E.01342
G1 X265.686 Y185.282 E.12443
G1 X265.151 Y185.282 E.01598
G1 X268.534 Y188.665 E.14297
G1 X268.438 Y189.104 E.01342
G1 X264.616 Y185.282 E.16152
G1 X264.081 Y185.282 E.01598
G1 X268.342 Y189.543 E.18006
G1 X268.246 Y189.982 E.01342
G1 X263.546 Y185.282 E.19861
G1 X263.011 Y185.282 E.01598
G1 X268.15 Y190.42 E.21715
G1 X268.054 Y190.859 E.01342
G1 X262.476 Y185.282 E.23569
G1 X261.941 Y185.282 E.01598
G1 X267.957 Y191.298 E.25424
G1 X267.861 Y191.737 E.01342
G1 X261.406 Y185.282 E.27278
G1 X260.871 Y185.282 E.01598
G1 X267.765 Y192.176 E.29133
G1 X267.669 Y192.615 E.01342
G1 X260.336 Y185.282 E.30987
G1 X259.801 Y185.282 E.01598
G1 X267.573 Y193.054 E.32842
G1 X267.477 Y193.492 E.01342
G1 X259.266 Y185.282 E.34696
G1 X258.731 Y185.282 E.01598
G1 X267.381 Y193.931 E.36551
G1 X267.285 Y194.37 E.01342
G1 X258.196 Y185.282 E.38405
G1 X257.661 Y185.282 E.01598
G1 X267.189 Y194.809 E.4026
G1 X267.093 Y195.248 E.01342
G1 X257.126 Y185.282 E.42114
G1 X256.591 Y185.282 E.01598
G1 X266.997 Y195.687 E.43968
G1 X266.901 Y196.126 E.01342
G1 X256.057 Y185.282 E.45823
G1 X255.522 Y185.282 E.01598
G1 X266.804 Y196.564 E.47677
G1 X266.708 Y197.003 E.01342
G1 X254.987 Y185.282 E.49532
G1 X254.452 Y185.282 E.01598
G1 X266.612 Y197.442 E.51386
G1 X266.516 Y197.881 E.01342
G1 X253.917 Y185.282 E.53241
G1 X253.382 Y185.282 E.01598
G1 X266.42 Y198.32 E.55095
G1 X266.324 Y198.759 E.01342
G1 X252.847 Y185.282 E.5695
G1 X252.312 Y185.282 E.01598
G1 X266.228 Y199.198 E.58804
G1 X266.132 Y199.636 E.01342
G1 X251.777 Y185.282 E.60658
G1 X251.242 Y185.282 E.01598
G1 X266.036 Y200.075 E.62513
G1 X265.94 Y200.514 E.01342
G1 X250.707 Y185.282 E.64367
G1 X250.172 Y185.282 E.01598
G1 X265.844 Y200.953 E.66222
G1 X265.747 Y201.392 E.01342
G1 X249.637 Y185.282 E.68076
G1 X249.102 Y185.282 E.01598
G1 X265.651 Y201.831 E.69931
G1 X265.555 Y202.269 E.01342
G1 X248.567 Y185.282 E.71785
G1 X248.032 Y185.282 E.01598
G1 X265.459 Y202.708 E.7364
G1 X265.363 Y203.147 E.01342
G1 X247.497 Y185.282 E.75494
G1 X246.963 Y185.282 E.01598
G1 X265.267 Y203.586 E.77348
G1 X265.171 Y204.025 E.01342
G1 X246.428 Y185.282 E.79203
G1 X245.893 Y185.282 E.01598
G1 X265.058 Y204.447 E.80986
G1 X264.845 Y204.769 E.01154
G1 X245.358 Y185.282 E.82348
G1 X244.823 Y185.282 E.01598
G1 X264.633 Y205.092 E.83711
G1 X264.42 Y205.414 E.01154
G1 X244.288 Y185.282 E.85074
G1 X243.753 Y185.282 E.01598
G1 X264.208 Y205.737 E.86436
G1 X263.995 Y206.059 E.01154
G1 X243.218 Y185.282 E.87799
G1 X242.683 Y185.282 E.01598
G1 X263.783 Y206.382 E.89161
G1 X263.565 Y206.698 E.01149
G1 X242.148 Y185.282 E.90499
G1 X241.613 Y185.282 E.01598
G1 X263.34 Y207.009 E.91812
G1 X263.116 Y207.319 E.01145
M73 P1 R38
G1 X241.078 Y185.282 E.93124
G1 X240.543 Y185.282 E.01598
G1 X262.892 Y207.63 E.94437
G1 X262.667 Y207.941 E.01145
G1 X240.008 Y185.282 E.95749
G1 X239.473 Y185.282 E.01598
G1 X262.443 Y208.251 E.97061
G1 X262.219 Y208.562 E.01145
G1 X238.938 Y185.282 E.98374
G1 X238.403 Y185.282 E.01598
G1 X261.992 Y208.87 E.99677
G1 X261.756 Y209.169 E.01138
G1 X237.869 Y185.282 E1.0094
G1 X237.334 Y185.282 E.01598
G1 X261.52 Y209.468 E1.02203
G1 X261.284 Y209.767 E.01138
G1 X236.799 Y185.282 E1.03466
G1 X236.264 Y185.282 E.01598
G1 X261.048 Y210.066 E1.04729
G1 X260.812 Y210.365 E.01138
G1 X235.729 Y185.282 E1.05992
G1 X235.194 Y185.282 E.01598
M73 P2 R38
G1 X260.576 Y210.663 E1.07255
G1 X260.34 Y210.962 E.01138
G1 X234.659 Y185.282 E1.08518
G1 X234.124 Y185.282 E.01598
G1 X260.094 Y211.252 E1.0974
G1 X259.846 Y211.539 E.01133
G1 X233.589 Y185.282 E1.10954
G1 X233.054 Y185.282 E.01598
G1 X259.599 Y211.826 E1.12168
G1 X259.351 Y212.113 E.01133
G1 X232.519 Y185.282 E1.13382
G1 X231.984 Y185.282 E.01598
G1 X259.103 Y212.401 E1.14596
G1 X258.856 Y212.688 E.01133
G1 X231.449 Y185.282 E1.1581
G1 X230.914 Y185.282 E.01598
G1 X258.608 Y212.975 E1.17024
G1 X258.355 Y213.257 E.01132
G1 X230.379 Y185.282 E1.18216
G1 X229.844 Y185.282 E.01598
G1 X258.096 Y213.533 E1.19381
G1 X257.837 Y213.809 E.01131
G1 X229.309 Y185.282 E1.20547
G1 X228.775 Y185.282 E.01598
G1 X257.578 Y214.085 E1.21712
G1 X257.318 Y214.36 E.01131
G1 X228.24 Y185.282 E1.22877
G1 X227.705 Y185.282 E.01598
G1 X257.059 Y214.636 E1.24043
G1 X256.8 Y214.912 E.01131
G1 X227.17 Y185.282 E1.25208
G1 X226.635 Y185.282 E.01598
G1 X256.54 Y215.187 E1.2637
G1 X256.27 Y215.451 E.0113
G1 X226.1 Y185.282 E1.27487
G1 X225.565 Y185.282 E.01598
G1 X255.999 Y215.716 E1.28604
G1 X255.728 Y215.98 E.0113
G1 X225.03 Y185.282 E1.29721
G1 X224.495 Y185.282 E.01598
G1 X255.458 Y216.244 E1.30838
G1 X255.187 Y216.509 E.0113
G1 X223.96 Y185.282 E1.31955
G1 X223.425 Y185.282 E.01598
G1 X254.916 Y216.773 E1.33071
G1 X254.646 Y217.037 E.0113
G1 X222.89 Y185.282 E1.34188
G1 X222.355 Y185.282 E.01598
G1 X254.367 Y217.294 E1.35273
G1 X254.085 Y217.547 E.01132
G1 X221.82 Y185.282 E1.36341
G1 X221.285 Y185.282 E.01598
G1 X253.803 Y217.799 E1.37409
G1 X253.521 Y218.052 E.01132
G1 X220.75 Y185.282 E1.38478
G1 X220.215 Y185.282 E.01598
G1 X253.239 Y218.305 E1.39546
G1 X252.957 Y218.558 E.01132
G1 X219.681 Y185.282 E1.40614
G1 X219.146 Y185.282 E.01598
G1 X252.675 Y218.811 E1.41683
G1 X252.389 Y219.06 E.01133
G1 X218.611 Y185.282 E1.42737
G1 X218.076 Y185.282 E.01598
G1 X252.096 Y219.302 E1.43757
G1 X251.802 Y219.543 E.01136
G1 X217.541 Y185.282 E1.44776
G1 X217.006 Y185.282 E.01598
G1 X251.508 Y219.784 E1.45796
G1 X251.215 Y220.025 E.01136
G1 X216.471 Y185.282 E1.46815
G1 X215.936 Y185.282 E.01598
G1 X250.921 Y220.267 E1.47835
G1 X250.627 Y220.508 E.01136
G1 X215.401 Y185.282 E1.48854
M73 P3 R38
G1 X214.866 Y185.282 E.01598
G1 X250.334 Y220.749 E1.49874
G1 X250.029 Y220.98 E.01141
G1 X214.331 Y185.282 E1.50848
G1 X213.796 Y185.282 E.01598
G1 X249.724 Y221.209 E1.51818
G1 X249.419 Y221.439 E.01141
G1 X213.261 Y185.282 E1.52789
G1 X212.726 Y185.282 E.01598
G1 X249.113 Y221.669 E1.53759
G1 X248.808 Y221.898 E.01141
G1 X212.191 Y185.282 E1.54729
G1 X211.656 Y185.282 E.01598
G1 X248.503 Y222.128 E1.557
G1 X248.197 Y222.357 E.01141
G1 X211.121 Y185.282 E1.5667
G1 X210.586 Y185.282 E.01598
G1 X247.885 Y222.58 E1.57611
G1 X247.568 Y222.798 E.0115
G1 X210.052 Y185.282 E1.58531
G1 X209.517 Y185.282 E.01598
G1 X247.251 Y223.016 E1.59452
G1 X246.934 Y223.234 E.0115
G1 X208.982 Y185.282 E1.60372
G1 X208.447 Y185.282 E.01598
G1 X246.617 Y223.451 E1.61293
G1 X246.3 Y223.669 E.0115
G1 X207.912 Y185.282 E1.62213
G1 X207.377 Y185.282 E.01598
G1 X245.982 Y223.887 E1.63134
G1 X245.661 Y224.101 E.01153
G1 X206.842 Y185.282 E1.64038
G1 X206.307 Y185.282 E.01598
G1 X245.332 Y224.307 E1.64908
G1 X245.003 Y224.513 E.0116
G1 X205.772 Y185.282 E1.65778
G1 X205.237 Y185.282 E.01598
G1 X244.674 Y224.719 E1.66648
G1 X244.345 Y224.925 E.0116
G1 X204.702 Y185.282 E1.67518
G1 X204.167 Y185.282 E.01598
G1 X244.016 Y225.13 E1.68388
G1 X243.687 Y225.336 E.0116
G1 X203.632 Y185.282 E1.69258
G1 X203.097 Y185.282 E.01598
G1 X243.357 Y225.541 E1.70122
G1 X243.015 Y225.734 E.01172
G1 X202.562 Y185.282 E1.7094
